; generated by Slic3r 1.2.9 on 2017-07-10 at 00:08:08

; external perimeters extrusion width = 0.40mm
; perimeters extrusion width = 0.40mm
; infill extrusion width = 0.40mm
; solid infill extrusion width = 0.40mm
; top infill extrusion width = 0.40mm

M107
M104 S220 ; set temperature
G28
G29 S1
M109 S220 ; wait for temperature to be reached
G21 ; set units to millimeters
G90 ; use absolute coordinates
M82 ; use absolute distances for extrusion
G92 E0
G1 E-3.00000 F2400.00000
G92 E0
G1 Z0.150 F4800.000
G1 X-29.731 Y-0.740 F4800.000
G1 E3.00000 F2400.00000
G1 X-27.531 Y-20.740 E3.24193 F2400.000
G1 X-26.886 Y-22.968 E3.26982
G1 X-25.528 Y-24.847 E3.29770
G1 X-23.615 Y-26.158 E3.32558
G1 X-20.800 Y-26.771 E3.36022
G1 X23.000 Y-26.771 E3.88688
G1 X25.285 Y-26.374 E3.91476
G1 X27.301 Y-25.230 E3.94265
G1 X28.813 Y-23.472 E3.97053
G1 X29.644 Y-21.307 E3.99841
G1 X29.771 Y-20.000 E4.01420
G1 X29.771 Y20.000 E4.49516
G1 X29.374 Y22.285 E4.52304
G1 X28.230 Y24.301 E4.55093
G1 X26.472 Y25.813 E4.57881
G1 X24.307 Y26.644 E4.60669
G1 X23.000 Y26.771 E4.62248
G1 X-20.800 Y26.771 E5.14913
G1 X-23.085 Y26.374 E5.17702
G1 X-25.101 Y25.230 E5.20490
G1 X-26.613 Y23.472 E5.23278
G1 X-27.531 Y20.740 E5.26742
G1 X-29.731 Y0.740 E5.50936
G1 X-29.731 Y-0.680 E5.52644
G1 X-29.539 Y-0.719 F4800.000
G1 X-27.339 Y-20.719 E5.76837 F2400.000
G1 X-26.698 Y-22.913 E5.79585
G1 X-25.346 Y-24.755 E5.82333
G1 X-23.445 Y-26.023 E5.85081
G1 X-20.800 Y-26.578 E5.88331
G1 X23.000 Y-26.578 E6.40996
G1 X25.251 Y-26.181 E6.43744
G1 X27.230 Y-25.038 E6.46492
G1 X28.698 Y-23.287 E6.49240
G1 X29.578 Y-20.000 E6.53332
G1 X29.578 Y20.000 E7.01429
G1 X29.181 Y22.251 E7.04177
G1 X28.038 Y24.230 E7.06925
G1 X26.287 Y25.698 E7.09673
G1 X23.000 Y26.578 E7.13765
G1 X-20.800 Y26.578 E7.66430
G1 X-23.051 Y26.181 E7.69178
G1 X-25.030 Y25.038 E7.71926
G1 X-26.498 Y23.287 E7.74674
G1 X-27.339 Y20.719 E7.77924
G1 X-29.539 Y0.719 E8.02117
G1 X-29.539 Y-0.659 E8.03774
G1 X-29.347 Y-0.698 F4800.000
G1 X-27.147 Y-20.698 E8.27968 F2400.000
G1 X-26.511 Y-22.858 E8.30675
G1 X-25.164 Y-24.662 E8.33382
G1 X-23.275 Y-25.887 E8.36089
G1 X-20.800 Y-26.386 E8.39125
G1 X23.000 Y-26.386 E8.91790
G1 X25.216 Y-25.989 E8.94497
G1 X27.157 Y-24.847 E8.97204
G1 X28.581 Y-23.104 E8.99912
G1 X29.386 Y-20.000 E9.03767
G1 X29.386 Y20.000 E9.51863
G1 X28.989 Y22.216 E9.54571
G1 X27.847 Y24.157 E9.57278
G1 X26.104 Y25.581 E9.59985
G1 X23.000 Y26.386 E9.63840
G1 X-20.800 Y26.386 E10.16506
G1 X-23.016 Y25.989 E10.19213
G1 X-24.957 Y24.847 E10.21920
G1 X-26.381 Y23.104 E10.24627
G1 X-27.147 Y20.698 E10.27663
G1 X-29.347 Y0.698 E10.51856
G1 X-29.347 Y-0.638 E10.53463
G1 X-29.156 Y-0.677 F4800.000
G1 X-26.956 Y-20.677 E10.77656 F2400.000
G1 X-26.323 Y-22.802 E10.80322
G1 X-24.982 Y-24.567 E10.82987
G1 X-23.106 Y-25.748 E10.85653
G1 X-20.800 Y-26.193 E10.88476
G1 X23.000 Y-26.193 E11.41142
G1 X25.181 Y-25.796 E11.43808
G1 X27.083 Y-24.657 E11.46473
G1 X28.461 Y-22.920 E11.49139
G1 X29.193 Y-20.000 E11.52759
G1 X29.193 Y20.000 E12.00856
G1 X28.796 Y22.181 E12.03521
G1 X27.657 Y24.083 E12.06187
G1 X25.920 Y25.461 E12.08852
G1 X23.000 Y26.193 E12.12472
G1 X-20.800 Y26.193 E12.65138
G1 X-22.981 Y25.796 E12.67804
G1 X-24.883 Y24.657 E12.70469
G1 X-26.261 Y22.920 E12.73135
G1 X-26.956 Y20.677 E12.75958
G1 X-29.156 Y0.677 E13.00152
G1 X-29.156 Y-0.617 E13.01708
G1 E10.01708 F2400.00000
G92 E0
G1 X-11.980 Y-21.842 F4800.000
G1 E3.00000 F2400.00000
G1 X-11.820 Y-21.842 E3.00192 F2400.000
G1 X-9.517 Y-24.145 E3.04108
G1 X-1.283 Y-24.145 E3.14009
G1 X1.020 Y-21.842 E3.17925
G1 X1.180 Y-21.842 E3.18118
G1 X3.483 Y-24.145 E3.22034
G1 X11.717 Y-24.145 E3.31935
G1 X14.020 Y-21.842 E3.35851
G1 X14.180 Y-21.842 E3.36043
G1 X16.483 Y-24.145 E3.39959
G1 X24.717 Y-24.145 E3.49860
G1 X27.145 Y-21.717 E3.53989
G1 X27.145 Y-3.358 E3.76064
G1 X25.088 Y-1.012 E3.79816
G1 X23.788 Y-0.841 E3.81393
G1 X23.577 Y-0.757 E3.81666
G1 X23.396 Y-0.622 E3.81938
G1 X23.255 Y-0.445 E3.82210
G1 X23.166 Y-0.237 E3.82482
G1 X23.133 Y-0.013 E3.82754
G1 X23.159 Y0.212 E3.83027
G1 X23.243 Y0.423 E3.83299
G1 X23.378 Y0.604 E3.83571
G1 X23.577 Y0.757 E3.83873
G1 X23.789 Y0.841 E3.84147
G1 X25.091 Y1.014 E3.85726
G1 X27.145 Y3.359 E3.89475
G1 X27.145 Y21.717 E4.11549
G1 X24.717 Y24.145 E4.15678
G1 X16.483 Y24.145 E4.25579
G1 X14.180 Y21.842 E4.29495
G1 X14.020 Y21.842 E4.29688
G1 X11.717 Y24.145 E4.33604
G1 X3.483 Y24.145 E4.43505
G1 X1.180 Y21.842 E4.47421
G1 X1.020 Y21.842 E4.47613
G1 X-1.283 Y24.145 E4.51529
G1 X-9.517 Y24.145 E4.61430
G1 X-11.820 Y21.842 E4.65346
G1 X-11.980 Y21.842 E4.65538
G1 X-14.283 Y24.145 E4.69455
G1 X-22.517 Y24.145 E4.79356
G1 X-24.945 Y21.717 E4.83485
G1 X-24.945 Y7.564 E5.00502
G1 X-24.960 Y7.512 E5.00568
G1 X-25.614 Y6.472 E5.02045
G1 X-25.816 Y6.052 E5.02605
G1 X-26.731 Y3.439 E5.05935
G1 X-26.835 Y2.985 E5.06495
G1 X-27.145 Y0.233 E5.09825
G1 X-27.145 Y-0.233 E5.10385
G1 X-26.835 Y-2.984 E5.13714
G1 X-26.732 Y-3.439 E5.14274
G1 X-25.816 Y-6.053 E5.17605
G1 X-25.614 Y-6.472 E5.18164
G1 X-24.960 Y-7.512 E5.19641
G1 X-24.945 Y-7.564 E5.19707
G1 X-24.945 Y-21.717 E5.36724
G1 X-22.517 Y-24.145 E5.40853
G1 X-14.283 Y-24.145 E5.50754
G1 X-12.022 Y-21.885 E5.54599
G1 X-11.980 Y-21.570 F4800.000
G1 X-11.820 Y-21.570 E5.54791 F2400.000
G1 X-9.437 Y-23.953 E5.58843
G1 X-1.363 Y-23.953 E5.68551
G1 X1.020 Y-21.570 E5.72604
G1 X1.180 Y-21.570 E5.72796
G1 X3.563 Y-23.953 E5.76848
G1 X11.637 Y-23.953 E5.86557
G1 X14.020 Y-21.570 E5.90609
G1 X14.180 Y-21.570 E5.90801
G1 X16.563 Y-23.953 E5.94853
G1 X24.637 Y-23.953 E6.04562
G1 X26.953 Y-21.637 E6.08499
G1 X26.953 Y-3.431 E6.30390
G1 X24.991 Y-1.194 E6.33967
G1 X23.738 Y-1.029 E6.35488
G1 X23.480 Y-0.926 E6.35821
G1 X23.258 Y-0.760 E6.36155
G1 X23.087 Y-0.542 E6.36488
G1 X22.978 Y-0.287 E6.36821
G1 X22.938 Y-0.013 E6.37154
G1 X22.971 Y0.263 E6.37488
G1 X23.074 Y0.520 E6.37821
G1 X23.240 Y0.742 E6.38154
G1 X23.458 Y0.913 E6.38488
G1 X23.738 Y1.029 E6.38852
G1 X24.994 Y1.196 E6.40375
G1 X26.953 Y3.432 E6.43949
G1 X26.953 Y21.637 E6.65840
G1 X24.637 Y23.953 E6.69777
G1 X16.563 Y23.953 E6.79486
G1 X14.180 Y21.570 E6.83538
G1 X14.020 Y21.570 E6.83730
G1 X11.637 Y23.953 E6.87782
G1 X3.563 Y23.953 E6.97491
G1 X1.180 Y21.570 E7.01543
G1 X1.020 Y21.570 E7.01735
G1 X-1.363 Y23.953 E7.05787
G1 X-9.437 Y23.953 E7.15496
G1 X-11.820 Y21.570 E7.19548
G1 X-11.980 Y21.570 E7.19740
G1 X-14.363 Y23.953 E7.23792
G1 X-22.437 Y23.953 E7.33501
G1 X-24.753 Y21.637 E7.37438
G1 X-24.753 Y7.509 E7.54426
G1 X-24.768 Y7.456 E7.54492
G1 X-25.445 Y6.378 E7.56023
G1 X-25.638 Y5.978 E7.56557
G1 X-26.546 Y3.385 E7.59860
G1 X-26.645 Y2.952 E7.60394
G1 X-26.953 Y0.222 E7.63698
G1 X-26.953 Y-0.222 E7.64232
G1 X-26.645 Y-2.952 E7.67535
G1 X-26.546 Y-3.385 E7.68070
G1 X-25.638 Y-5.979 E7.71374
G1 X-25.445 Y-6.379 E7.71908
G1 X-24.768 Y-7.456 E7.73438
G1 X-24.753 Y-7.509 E7.73504
G1 X-24.753 Y-21.637 E7.90492
G1 X-22.437 Y-23.953 E7.94429
G1 X-14.363 Y-23.953 E8.04138
G1 X-12.022 Y-21.612 E8.08118
G1 E5.08118 F2400.00000
G92 E0
G1 X-12.414 Y-20.414 F4800.000
G1 X-11.917 Y-19.917 F4800.000
G1 X-12.992 Y-0.302 F4800.000
G1 X-12.240 Y-6.866 F4800.000
G1 E3.00000 F2400.00000
G1 X-11.961 Y-6.786 E3.00349 F2400.000
G1 X-11.575 Y-7.401 E3.01222
G1 X-11.560 Y-7.453 E3.01288
G1 X-11.560 Y-21.557 E3.18247
G1 X-9.357 Y-23.760 E3.21992
G1 X-1.443 Y-23.760 E3.31509
G1 X0.760 Y-21.557 E3.35254
G1 X0.760 Y-6.866 E3.52918
G1 X1.039 Y-6.786 E3.53267
G1 X1.425 Y-7.401 E3.54141
G1 X1.440 Y-7.453 E3.54206
G1 X1.440 Y-21.557 E3.71165
G1 X3.643 Y-23.760 E3.74910
G1 X11.557 Y-23.760 E3.84427
G1 X13.760 Y-21.557 E3.88172
G1 X13.760 Y-6.866 E4.05837
G1 X14.039 Y-6.786 E4.06186
G1 X14.425 Y-7.401 E4.07059
G1 X14.440 Y-7.453 E4.07124
G1 X14.440 Y-21.557 E4.24084
G1 X16.643 Y-23.760 E4.27829
G1 X24.557 Y-23.760 E4.37345
G1 X26.760 Y-21.557 E4.41091
G1 X26.760 Y-3.503 E4.62799
G1 X24.894 Y-1.376 E4.66201
G1 X23.663 Y-1.210 E4.67695
G1 X23.383 Y-1.094 E4.68060
G1 X23.121 Y-0.897 E4.68454
G1 X22.906 Y-0.617 E4.68878
G1 X22.783 Y-0.313 E4.69273
G1 X22.744 Y0.013 E4.69667
G1 X22.783 Y0.313 E4.70031
G1 X22.906 Y0.617 E4.70426
G1 X23.121 Y0.897 E4.70850
G1 X23.383 Y1.094 E4.71244
G1 X23.663 Y1.210 E4.71609
G1 X24.896 Y1.377 E4.73105
G1 X26.760 Y3.504 E4.76506
G1 X26.760 Y21.557 E4.98213
G1 X24.557 Y23.760 E5.01958
G1 X16.643 Y23.760 E5.11475
G1 X14.440 Y21.557 E5.15220
G1 X14.440 Y7.453 E5.32179
G1 X14.425 Y7.401 E5.32244
G1 X14.039 Y6.786 E5.33118
G1 X13.760 Y6.866 E5.33467
G1 X13.760 Y21.557 E5.51131
G1 X11.557 Y23.760 E5.54876
G1 X3.643 Y23.760 E5.64393
G1 X1.440 Y21.557 E5.68138
G1 X1.440 Y7.453 E5.85097
G1 X1.425 Y7.401 E5.85163
G1 X1.039 Y6.786 E5.86036
G1 X0.760 Y6.866 E5.86385
G1 X0.760 Y21.557 E6.04050
G1 X-1.443 Y23.760 E6.07795
G1 X-9.357 Y23.760 E6.17312
G1 X-11.560 Y21.557 E6.21057
G1 X-11.560 Y7.453 E6.38016
G1 X-11.575 Y7.401 E6.38081
G1 X-11.961 Y6.786 E6.38955
G1 X-12.240 Y6.866 E6.39303
G1 X-12.240 Y21.557 E6.56968
G1 X-14.443 Y23.760 E6.60713
G1 X-22.357 Y23.760 E6.70230
G1 X-24.560 Y21.557 E6.73975
G1 X-24.560 Y7.453 E6.90934
G1 X-24.575 Y7.401 E6.91000
G1 X-25.276 Y6.285 E6.92585
G1 X-25.460 Y5.905 E6.93092
G1 X-26.360 Y3.332 E6.96370
G1 X-26.454 Y2.920 E6.96878
G1 X-26.760 Y0.211 E7.00156
G1 X-26.760 Y-0.211 E7.00664
G1 X-26.455 Y-2.919 E7.03941
G1 X-26.360 Y-3.332 E7.04449
G1 X-25.460 Y-5.905 E7.07727
G1 X-25.276 Y-6.285 E7.08235
G1 X-24.575 Y-7.401 E7.09819
G1 X-24.560 Y-7.453 E7.09885
G1 X-24.560 Y-21.557 E7.26844
G1 X-22.357 Y-23.760 E7.30589
G1 X-14.443 Y-23.760 E7.40106
G1 X-12.240 Y-21.557 E7.43851
G1 X-12.240 Y-6.926 E7.61443
G1 X-12.433 Y-6.197 F4800.000
G1 X-12.154 Y-6.117 E7.61792 F2400.000
G1 X-11.382 Y-7.345 E7.63537
G1 X-11.367 Y-7.398 E7.63602
G1 X-11.367 Y-21.477 E7.80532
G1 X-9.277 Y-23.567 E7.84085
G1 X-1.523 Y-23.567 E7.93410
G1 X0.567 Y-21.477 E7.96963
G1 X0.567 Y-6.197 E8.15336
G1 X0.846 Y-6.117 E8.15685
G1 X1.618 Y-7.345 E8.17429
G1 X1.633 Y-7.398 E8.17495
G1 X1.633 Y-21.477 E8.34425
G1 X3.723 Y-23.567 E8.37978
G1 X11.477 Y-23.567 E8.47302
G1 X13.567 Y-21.477 E8.50855
G1 X13.567 Y-6.197 E8.69228
G1 X13.846 Y-6.117 E8.69577
G1 X14.618 Y-7.345 E8.71322
G1 X14.633 Y-7.398 E8.71387
G1 X14.633 Y-21.477 E8.88317
G1 X16.723 Y-23.567 E8.91870
G1 X24.477 Y-23.567 E9.01195
G1 X26.567 Y-21.477 E9.04748
G1 X26.567 Y-3.576 E9.26273
G1 X24.797 Y-1.557 E9.29501
G1 X23.612 Y-1.398 E9.30938
G1 X23.286 Y-1.263 E9.31364
G1 X22.983 Y-1.035 E9.31819
G1 X22.737 Y-0.714 E9.32304
G1 X22.596 Y-0.363 E9.32760
G1 X22.549 Y0.013 E9.33215
G1 X22.596 Y0.363 E9.33640
G1 X22.737 Y0.714 E9.34096
G1 X22.983 Y1.035 E9.34581
G1 X23.286 Y1.263 E9.35036
G1 X23.613 Y1.398 E9.35462
G1 X24.799 Y1.559 E9.36902
G1 X26.567 Y3.577 E9.40128
G1 X26.567 Y21.477 E9.61652
G1 X24.477 Y23.567 E9.65205
G1 X16.723 Y23.567 E9.74529
G1 X14.633 Y21.477 E9.78082
G1 X14.633 Y7.398 E9.95012
G1 X14.618 Y7.345 E9.95078
G1 X13.846 Y6.117 E9.96822
G1 X13.567 Y6.197 E9.97171
G1 X13.567 Y21.477 E10.15544
G1 X11.477 Y23.567 E10.19097
G1 X3.723 Y23.567 E10.28422
G1 X1.633 Y21.477 E10.31975
G1 X1.633 Y7.398 E10.48905
G1 X1.618 Y7.345 E10.48970
G1 X0.846 Y6.117 E10.50715
G1 X0.567 Y6.197 E10.51064
G1 X0.567 Y21.477 E10.69437
G1 X-1.523 Y23.567 E10.72990
G1 X-9.277 Y23.567 E10.82314
G1 X-11.367 Y21.477 E10.85868
G1 X-11.367 Y7.398 E11.02797
G1 X-11.382 Y7.345 E11.02863
G1 X-12.154 Y6.117 E11.04607
G1 X-12.433 Y6.197 E11.04956
G1 X-12.433 Y21.477 E11.23329
G1 X-14.523 Y23.567 E11.26882
G1 X-22.277 Y23.567 E11.36207
G1 X-24.367 Y21.477 E11.39760
G1 X-24.367 Y7.398 E11.56690
G1 X-24.382 Y7.345 E11.56755
G1 X-25.107 Y6.192 E11.58394
G1 X-25.281 Y5.831 E11.58876
G1 X-26.175 Y3.278 E11.62127
G1 X-26.264 Y2.888 E11.62609
G1 X-26.567 Y0.200 E11.65861
G1 X-26.567 Y-0.200 E11.66343
G1 X-26.264 Y-2.887 E11.69594
G1 X-26.175 Y-3.278 E11.70076
G1 X-25.281 Y-5.831 E11.73328
G1 X-25.107 Y-6.192 E11.73810
G1 X-24.382 Y-7.345 E11.75448
G1 X-24.367 Y-7.398 E11.75514
G1 X-24.367 Y-21.477 E11.92444
G1 X-22.277 Y-23.567 E11.95997
G1 X-14.523 Y-23.567 E12.05321
G1 X-12.433 Y-21.477 E12.08874
G1 X-12.433 Y-6.257 E12.27175
G1 X-12.626 Y-5.234 F4800.000
G1 X-12.305 Y-5.180 E12.27567 F2400.000
G1 X-12.103 Y-5.757 E12.28302
G1 X-11.938 Y-6.098 E12.28758
G1 X-11.189 Y-7.290 E12.30450
G1 X-11.174 Y-7.342 E12.30515
G1 X-11.174 Y-21.398 E12.47416
G1 X-9.198 Y-23.374 E12.50777
G1 X-1.602 Y-23.374 E12.59910
G1 X0.374 Y-21.398 E12.63271
G1 X0.374 Y-5.234 E12.82706
G1 X0.695 Y-5.180 E12.83097
G1 X0.897 Y-5.757 E12.83832
G1 X1.062 Y-6.098 E12.84288
G1 X1.811 Y-7.290 E12.85980
G1 X1.826 Y-7.342 E12.86046
G1 X1.826 Y-21.398 E13.02946
G1 X3.802 Y-23.374 E13.06307
G1 X11.398 Y-23.374 E13.15440
G1 X13.374 Y-21.398 E13.18801
G1 X13.374 Y-5.234 E13.38236
G1 X13.695 Y-5.180 E13.38627
G1 X13.897 Y-5.757 E13.39363
G1 X14.062 Y-6.098 E13.39819
G1 X14.811 Y-7.290 E13.41510
G1 X14.826 Y-7.342 E13.41576
G1 X14.826 Y-21.398 E13.58477
G1 X16.802 Y-23.374 E13.61838
G1 X24.398 Y-23.374 E13.70970
G1 X26.374 Y-21.398 E13.74331
G1 X26.374 Y-3.649 E13.95673
G1 X24.700 Y-1.739 E13.98727
G1 X23.562 Y-1.586 E14.00107
G1 X23.188 Y-1.431 E14.00593
G1 X22.846 Y-1.172 E14.01110
G1 X22.569 Y-0.812 E14.01656
G1 X22.408 Y-0.414 E14.02173
G1 X22.355 Y0.013 E14.02689
G1 X22.414 Y0.438 E14.03206
G1 X22.569 Y0.812 E14.03692
G1 X22.846 Y1.172 E14.04238
G1 X23.188 Y1.431 E14.04755
G1 X23.563 Y1.586 E14.05242
G1 X24.702 Y1.740 E14.06624
G1 X26.374 Y3.649 E14.09676
G1 X26.374 Y21.398 E14.31016
G1 X24.398 Y23.374 E14.34377
G1 X16.802 Y23.374 E14.43510
G1 X14.826 Y21.398 E14.46871
G1 X14.826 Y7.342 E14.63772
G1 X14.811 Y7.290 E14.63837
G1 X14.062 Y6.098 E14.65530
G1 X13.897 Y5.757 E14.65985
G1 X13.695 Y5.180 E14.66720
G1 X13.374 Y5.234 E14.67112
G1 X13.374 Y21.398 E14.86547
G1 X11.398 Y23.374 E14.89908
G1 X3.802 Y23.374 E14.99040
G1 X1.826 Y21.398 E15.02401
G1 X1.826 Y7.342 E15.19302
G1 X1.811 Y7.290 E15.19368
G1 X1.062 Y6.098 E15.21060
G1 X0.897 Y5.757 E15.21516
G1 X0.695 Y5.180 E15.22251
G1 X0.374 Y5.234 E15.22642
G1 X0.374 Y21.398 E15.42077
G1 X-1.602 Y23.374 E15.45438
G1 X-9.198 Y23.374 E15.54571
G1 X-11.174 Y21.398 E15.57932
G1 X-11.174 Y7.342 E15.74833
G1 X-11.189 Y7.290 E15.74898
G1 X-11.938 Y6.098 E15.76590
G1 X-12.103 Y5.757 E15.77046
G1 X-12.305 Y5.180 E15.77781
G1 X-12.626 Y5.234 E15.78173
G1 X-12.626 Y21.398 E15.97608
G1 X-14.602 Y23.374 E16.00969
G1 X-22.198 Y23.374 E16.10101
G1 X-24.174 Y21.398 E16.13462
G1 X-24.174 Y7.342 E16.30363
G1 X-24.189 Y7.290 E16.30428
G1 X-24.938 Y6.098 E16.32121
G1 X-25.103 Y5.757 E16.32576
G1 X-25.989 Y3.225 E16.35802
G1 X-26.074 Y2.855 E16.36258
G1 X-26.374 Y0.189 E16.39484
G1 X-26.374 Y-0.190 E16.39939
G1 X-26.074 Y-2.855 E16.43164
G1 X-25.989 Y-3.225 E16.43621
G1 X-25.103 Y-5.757 E16.46847
G1 X-24.938 Y-6.098 E16.47302
G1 X-24.189 Y-7.290 E16.48994
G1 X-24.174 Y-7.342 E16.49060
G1 X-24.174 Y-21.398 E16.65960
G1 X-22.198 Y-23.374 E16.69321
G1 X-14.602 Y-23.374 E16.78454
G1 X-12.626 Y-21.398 E16.81815
G1 X-12.626 Y-5.294 E17.01178
G1 X-12.819 Y-4.100 F4800.000
G1 X-12.498 Y-4.046 E17.01569 F2400.000
G1 X-11.924 Y-5.683 E17.03656
G1 X-11.769 Y-6.005 E17.04085
G1 X-10.996 Y-7.234 E17.05831
G1 X-10.981 Y-7.286 E17.05897
G1 X-10.981 Y-21.318 E17.22768
G1 X-9.118 Y-23.181 E17.25937
G1 X-1.682 Y-23.181 E17.34878
G1 X0.181 Y-21.318 E17.38047
G1 X0.181 Y-4.100 E17.58749
G1 X0.502 Y-4.046 E17.59141
G1 X1.076 Y-5.683 E17.61227
G1 X1.231 Y-6.005 E17.61657
G1 X2.004 Y-7.234 E17.63402
G1 X2.019 Y-7.286 E17.63468
G1 X2.019 Y-21.318 E17.80339
G1 X3.882 Y-23.181 E17.83508
G1 X11.318 Y-23.181 E17.92449
G1 X13.181 Y-21.318 E17.95618
G1 X13.181 Y-4.100 E18.16321
G1 X13.502 Y-4.046 E18.16712
G1 X14.076 Y-5.683 E18.18798
G1 X14.231 Y-6.005 E18.19228
G1 X15.004 Y-7.234 E18.20974
G1 X15.019 Y-7.286 E18.21039
G1 X15.019 Y-21.318 E18.37911
G1 X16.882 Y-23.181 E18.41080
G1 X24.318 Y-23.181 E18.50020
G1 X26.181 Y-21.318 E18.53189
G1 X26.181 Y-3.721 E18.74348
G1 X24.603 Y-1.921 E18.77227
G1 X23.512 Y-1.774 E18.78550
G1 X23.091 Y-1.599 E18.79098
G1 X22.708 Y-1.310 E18.79675
G1 X22.401 Y-0.909 E18.80283
G1 X22.220 Y-0.464 E18.80860
G1 X22.160 Y0.013 E18.81438
G1 X22.220 Y0.464 E18.81985
G1 X22.401 Y0.909 E18.82562
